X:1
T: The Dean Brig O'Edinburgh
C:Airchie Allan
R:Strathspey
Q: 128
K:Eb
M:4/4
L:1/16
|:G2|B3c Be3 BG3 G3F|E3F EFGF EB,3 B,4|C3E B,3E A,3E G,3E|CF3 F3E DEFD B,4|
B3c Be3 BG3 G3F|E3F EFGF EB,3 B,4|C3A B,3G A,3F G,3c|B3c B2D2 E4-E2f2|
ge3 e3g fd3 d3f|ec3 c3=a bB3 B3_d|cA3 A3c BG3 G3B|cF3 F3E DEFD B,3F|
GE3 E3G FD3 D3F|EC3 C3=A BB,3 B,4|C3A B,3G A,3F G,3c|B3c B2D2 E4-E2:|
